src/images/play-button.svg

<?xml version="1.0" encoding="iso-8859-1"?>
<!-- Generator: Adobe Illustrator 19.0.0, SVG Export Plug-In . SVG Version: 6.00 Build 0)  -->
<svg version="1.1" id="Layer_1" xmlns="http://www.w3.org/2000/svg" xmlns:xlink="http://www.w3.org/1999/xlink" x="0px" y="0px"
	 viewBox="0 0 512 512" style="enable-background:new 0 0 512 512;" xml:space="preserve">
<g>
	<g>
		<g>
			<path d="M256,0C114.833,0,0,114.844,0,256s114.833,256,256,256s256-114.844,256-256S397.167,0,256,0z M256,490.667
				C126.604,490.667,21.333,385.396,21.333,256S126.604,21.333,256,21.333S490.667,126.604,490.667,256S385.396,490.667,256,490.667
				z"/>
			<path d="M357.771,247.031l-149.333-96c-3.271-2.135-7.5-2.25-10.875-0.396C194.125,152.51,192,156.094,192,160v192
				c0,3.906,2.125,7.49,5.563,9.365c1.583,0.865,3.354,1.302,5.104,1.302c2,0,4.021-0.563,5.771-1.698l149.333-96
				c3.042-1.958,4.896-5.344,4.896-8.969S360.813,248.99,357.771,247.031z M213.333,332.458V179.542L332.271,256L213.333,332.458z"
				/>
		</g>
	</g>
</g>
<g>
</g>
<g>
</g>
<g>
</g>
<g>
</g>
<g>
</g>
<g>
</g>
<g>
</g>
<g>
</g>
<g>
</g>
<g>
</g>
<g>
</g>
<g>
</g>
<g>
</g>
<g>
</g>
<g>
</g>
</svg>

<?xml version="1.0" encoding="UTF-8"?>
<svg width="512px" height="512px" viewBox="0 0 512 512" xmlns="http://www.w3.org/2000/svg" xmlns:xlink="http://www.w3.org/1999/xlink" version="1.1">
 <!-- Generated by Pixelmator Pro 2.3 -->
 <g id="group">
  <g id="group-1">
   <g id="group-2">
    <path id="Путь" d="M256 0 C114.833 0 0 114.844 0 256 0 397.156 114.833 512 256 512 397.167 512 512 397.156 512 256 512 114.844 397.167 0 256 0 Z M256 490.667 C126.604 490.667 21.333 385.396 21.333 256 21.333 126.604 126.604 21.333 256 21.333 385.396 21.333 490.667 126.604 490.667 256 490.667 385.396 385.396 490.667 256 490.667 Z" fill="#ffffff" fill-opacity="1" stroke="none"/>
    <path id="Путь-1" d="M357.771 247.031 L208.438 151.031 C205.167 148.896 200.938 148.781 197.563 150.635 194.125 152.51 192 156.094 192 160 L192 352 C192 355.906 194.125 359.49 197.563 361.365 199.146 362.23 200.917 362.667 202.667 362.667 204.667 362.667 206.688 362.104 208.438 360.969 L357.771 264.969 C360.813 263.011 362.667 259.625 362.667 256 362.667 252.375 360.813 248.99 357.771 247.031 Z M213.333 332.458 L213.333 179.542 332.271 256 Z" fill="#ffffff" fill-opacity="1" stroke="none"/>
   </g>
  </g>
 </g>
</svg>
